; HEADER_BLOCK_START
; generated by Creality_Print V6.3.0.3420 on 2025-11-06 at 12:02:10
; total layer number: 132
; filament_density: 1.24
; filament_diameter: 1.75
; max_z_height: 21.48
; creality_uuid: 14b46ea2-f677-4343-bb89-815c0fea22c4
; HEADER_BLOCK_END

; MINX = 20.00
; MINY = 20.00
; MINZ = 0.00
; MAXX = 200.00
; MAXY = 200.00
; MAXZ = 21.42

; multicolor_method = 0 
; THUMBNAIL_BLOCK_START

;
; THUMBNAIL_BLOCK_END

; THUMBNAIL_BLOCK_START

;
; THUMBNAIL_BLOCK_END

; external perimeters extrusion width = 0.42mm
; perimeters extrusion width = 0.45mm
; infill extrusion width = 0.45mm
; solid infill extrusion width = 0.42mm
; top infill extrusion width = 0.42mm
; first layer extrusion width = 0.50mm

; EXECUTABLE_BLOCK_START
EXCLUDE_OBJECT_DEFINE NAME=TEST.stl_id_0_copy_0 CENTER=110,110 POLYGON=[[114.736,20.125],[119.458,20.499],[124.156,21.121],[131.892,22.703],[136.456,23.977],[140.948,25.487],[148.232,28.525],[152.468,30.649],[156.586,32.995],[163.156,37.373],[168.12,41.281],[170.496,43.363],[176.102,48.923],[179.224,52.485],[182.156,56.207],[186.592,62.739],[188.204,65.457],[191.136,71.053],[194.238,78.313],[196.69,85.817],[197.842,90.413],[198.752,95.063],[199.416,99.755],[199.914,106.051],[199.914,113.947],[199.222,121.813],[198.476,126.491],[197.484,131.125],[195.298,138.711],[193.668,143.161],[191.808,147.517],[188.204,154.545],[185.752,158.595],[183.09,162.517],[180.224,166.291],[176.102,171.077],[170.496,176.637],[168.12,178.719],[163.156,182.627],[156.586,187.005],[149.658,190.791],[146.798,192.135],[140.948,194.513],[136.456,196.025],[131.892,197.297],[124.156,198.879],[121.03,199.323],[114.736,199.875],[111.578,199.987],[105.262,199.875],[102.11,199.655],[95.842,198.879],[88.106,197.297],[83.544,196.025],[79.054,194.513],[74.646,192.765],[70.34,190.791],[63.412,187.005],[56.844,182.627],[53.094,179.727],[49.506,176.637],[44.978,172.229],[42.836,169.907],[39.776,166.291],[36.912,162.517],[34.248,158.595],[31.794,154.545],[28.192,147.517],[25.22,140.203],[23.308,134.183],[22.514,131.125],[21.522,126.491],[20.778,121.813],[20.278,117.101],[20.032,112.369],[20.17,104.475],[20.586,99.755],[21.248,95.063],[22.156,90.413],[23.308,85.817],[24.21,82.791],[26.33,76.839],[29.56,69.635],[33.406,62.739],[37.844,56.207],[40.774,52.485],[43.898,48.923],[47.204,45.527],[50.682,42.313],[56.844,37.373],[63.412,32.995],[67.53,30.649],[71.766,28.525],[76.106,26.627],[80.54,24.959],[88.106,22.703],[95.842,21.121],[100.54,20.499],[105.262,20.125],[108.42,20.013],[114.736,20.125]]
M73 P0 R107
M106 S0
M106 P2 S0
; max_print_temp = 55,230
;TYPE:Custom
START_PRINT EXTRUDER_TEMP=230 BED_TEMP=50
T0
M204 S2000
M104 S230
G1 Z3 F600
M83
G92 E0
G1 Z1 F600
G90
G21
M83 ; use relative distances for extrusion
G1 E-.8 F2400
G1 Z.2 F30000
M106 S0
;LAYER_CHANGE
;Z:0.2
;HEIGHT:0.2
;BEFORE_LAYER_CHANGE
;0.2
G92 E0

;AFTER_LAYER_CHANGE
;0.2
;_SET_FAN_SPEED_CHANGING_LAYER
SET_VELOCITY_LIMIT ACCEL=1000 ACCEL_TO_DECEL=1000
SET_VELOCITY_LIMIT SQUARE_CORNER_VELOCITY=20
; printing object TEST.stl id:0 copy 0
EXCLUDE_OBJECT_START NAME=TEST.stl_id_0_copy_0
G1 X101.688 Y198.749 Z.6 F30000
G1 Z.2
G1 E.8 F2400
;TYPE:Inner wall
;WIDTH:0.5
G1 F3600
G1 X99.078 Y198.469 E.09477
G3 X66.564 Y32.157 I10.919 J-88.469 E8.07797
G3 X110.383 Y20.861 I43.424 J77.808 E1.65195
G3 X102.185 Y198.797 I-.387 J89.139 E10.37965
G1 X101.727 Y198.752 E.01661
G1 X102.145 Y199.253 F30000
;TYPE:Outer wall
G1 F3600
G3 X66.341 Y31.758 I7.852 J-89.252 E8.23279
G3 X110.387 Y20.404 I43.647 J78.207 E1.66049
G3 X102.185 Y199.256 I-.39 J89.596 E10.43137
G1 E-.8 F2400
;WIPE_START
G1 F3600
G1 X100.196 Y199.049
;WIPE_END
G1 X103.262 Y192.059 Z.6 F30000
G1 X168.624 Y43.044 Z.6
G1 Z.2
G1 E.8 F2400
;TYPE:Bottom surface
;WIDTH:0.500642
G1 F3600
G1 X173.084 Y47.505 E.22808
G3 X178.823 Y53.891 I-62.824 J62.228 E.31058
G1 X166.093 Y41.16 E.65097
G2 X163.159 Y38.874 I-61.371 J75.717 E.13451
G1 X181.146 Y56.861 E.91977
G3 X182.778 Y59.14 I-64.255 J47.726 E.10134
G1 X160.823 Y37.185 E1.12263
G2 X158.814 Y35.824 I-42.245 J60.17 E.08774
G1 X184.178 Y61.187 E1.29692
G3 X185.332 Y62.989 I-50.617 J33.697 E.07735
G1 X157.01 Y34.667 E1.44817
G2 X155.358 Y33.662 I-27.716 J43.71 E.06992
G1 X186.341 Y64.646 E1.58427
G3 X187.239 Y66.191 I-167.738 J98.508 E.06462
G1 X153.815 Y32.767 E1.70909
G2 X152.358 Y31.956 I-24.445 J42.255 E.0603
G1 X188.041 Y67.64 E1.82462
G3 X188.776 Y69.023 I-36.608 J20.357 E.05663
G1 X150.976 Y31.222 E1.93287
G2 X149.657 Y30.551 I-19.754 J37.175 E.0535
G1 X189.449 Y70.342 E2.03468
G3 X190.075 Y71.615 I-34.829 J17.909 E.05129
G1 X148.391 Y29.932 E2.13141
G2 X147.169 Y29.358 I-17.458 J35.538 E.04882
G1 X190.648 Y72.837 E2.22323
G3 X191.178 Y74.014 I-31.1 J14.704 E.04667
G1 X145.986 Y28.822 E2.31082
G2 X144.838 Y28.321 I-14.919 J32.629 E.0453
G1 X191.674 Y75.156 E2.39487
G3 X192.141 Y76.271 I-34.621 J15.167 E.04369
G1 X143.728 Y27.859 E2.47548
G2 X142.646 Y27.424 I-13.22 J31.338 E.04217
G1 X192.583 Y77.361 E2.55344
G1 X192.991 Y78.416 E.04092
G1 X141.586 Y27.011 E2.62852
G1 X140.545 Y26.618 E.04023
G1 X193.365 Y79.437 E2.70082
G1 X193.723 Y80.442 E.03859
G1 X139.542 Y26.262 E2.77042
G2 X138.554 Y25.921 I-11.148 J30.703 E.03781
G1 X194.081 Y81.448 E2.83927
G3 X194.404 Y82.418 I-17.92 J6.51 E.037
G1 X137.579 Y25.593 E2.90568
G1 X136.63 Y25.291 E.036
G1 X194.712 Y83.373 E2.96991
G1 X194.999 Y84.307 E.03535
G1 X135.693 Y25.001 E3.03252
G1 X134.77 Y24.726 E.03482
G1 X195.27 Y85.226 E3.0936
G1 X195.533 Y86.137 E.03426
G1 X133.868 Y24.471 E3.15318
G2 X132.973 Y24.224 I-7.481 J25.355 E.03354
G1 X195.771 Y87.022 E3.21107
G3 X196.003 Y87.901 I-25.887 J7.289 E.03286
G1 X132.099 Y23.997 E3.26764
G2 X131.233 Y23.779 I-6.451 J23.778 E.03227
G1 X196.219 Y88.765 E3.32296
G3 X196.425 Y89.617 I-25.145 J6.511 E.03172
G1 X130.38 Y23.573 E3.37707
G2 X129.539 Y23.379 I-6.721 J27.25 E.03121
G1 X196.621 Y90.461 E3.43012
G3 X196.803 Y91.29 I-24.064 J5.714 E.0307
G1 X128.704 Y23.192 E3.48212
G2 X127.889 Y23.023 I-4.444 J19.456 E.03012
G1 X196.98 Y92.115 E3.53288
G3 X197.139 Y92.921 I-21.012 J4.557 E.02971
G1 X127.077 Y22.858 E3.58252
G2 X126.28 Y22.709 I-5.171 J25.396 E.0293
G1 X197.296 Y93.725 E3.63127
G1 X197.435 Y94.512 E.02891
G1 X125.485 Y22.561 E3.67909
G1 X124.706 Y22.43 E.02853
G1 X197.574 Y95.298 E3.72596
G1 X197.689 Y96.06 E.02786
G1 X123.929 Y22.3 E3.77157
G1 X123.168 Y22.186 E.02784
G1 X197.803 Y96.822 E3.81638
G1 X197.918 Y97.584 E.02786
G1 X122.406 Y22.072 E3.86116
G1 X121.66 Y21.973 E.02723
G1 X198.033 Y98.346 E3.90519
G1 X198.124 Y99.084 E.02691
G1 X120.914 Y21.874 E3.94803
G2 X120.182 Y21.79 I-2.703 J20.23 E.02663
G1 X198.215 Y99.823 E3.99012
G3 X198.293 Y100.548 I-20.372 J2.555 E.02637
G1 X119.451 Y21.706 E4.03148
G2 X118.732 Y21.634 I-2.41 J20.52 E.02613
G1 X198.37 Y101.272 E4.07216
G3 X198.435 Y101.985 I-19.897 J2.189 E.02588
G1 X118.015 Y21.565 E4.11216
G2 X117.308 Y21.505 I-2.027 J19.725 E.02566
G1 X198.498 Y102.695 E4.1515
G3 X198.552 Y103.396 I-19.712 J1.879 E.02545
G1 X116.605 Y21.45 E4.19021
G2 X115.908 Y21.4 I-1.841 J20.966 E.02526
G1 X198.6 Y104.092 E4.22833
G3 X198.645 Y104.784 I-21.03 J1.697 E.02506
G1 X115.218 Y21.357 E4.26589
G2 X114.531 Y21.317 I-1.401 J18.152 E.02489
G1 X198.681 Y105.468 E4.3029
G3 X198.717 Y106.15 I-19.14 J1.339 E.02473
G1 X113.854 Y21.288 E4.33931
G1 X113.178 Y21.259 E.02448
G1 X198.741 Y106.822 E4.37511
G1 X198.764 Y107.493 E.02428
G1 X112.511 Y21.239 E4.41042
G1 X111.846 Y21.221 E.02408
G1 X198.779 Y108.154 E4.44518
G1 X198.789 Y108.812 E.0238
G1 X111.187 Y21.21 E4.4794
G1 X110.535 Y21.205 E.02358
G1 X198.796 Y109.466 E4.5131
G1 X198.796 Y110.114 E.0234
G1 X109.889 Y21.206 E4.54614
G1 X109.244 Y21.209 E.0233
G1 X198.796 Y110.761 E4.57909
G3 X198.786 Y111.398 I-19.34 J.01 E.02304
G1 X108.6 Y21.212 E4.61152
G2 X107.967 Y21.226 I-.017 J13.61 E.02291
G1 X198.775 Y112.035 E4.64337
G3 X198.759 Y112.666 I-16.608 J-.122 E.02281
G1 X107.337 Y21.244 E4.67472
G2 X106.71 Y21.264 I.351 J20.719 E.02269
G1 X198.737 Y113.291 E4.70565
G3 X198.714 Y113.915 I-17.605 J-.323 E.02261
G1 X106.089 Y21.29 E4.73623
G1 X105.468 Y21.317 E.02246
G1 X198.681 Y114.53 E4.76629
G1 X198.649 Y115.145 E.02225
G1 X104.856 Y21.352 E4.79591
G1 X104.247 Y21.39 E.02208
G1 X198.611 Y115.755 E4.82516
G1 X198.569 Y116.36 E.02193
G1 X103.64 Y21.43 E4.85406
G1 X103.039 Y21.477 E.02176
G1 X198.527 Y116.965 E4.88258
G3 X198.475 Y117.56 I-16.698 J-1.145 E.02162
G1 X102.439 Y21.525 E4.91063
G2 X101.845 Y21.578 I1.187 J16.527 E.02156
G1 X198.423 Y118.156 E4.93833
G3 X198.368 Y118.748 I-16.794 J-1.272 E.0215
G1 X101.255 Y21.635 E4.96568
G1 X100.665 Y21.692 E.02144
G1 X198.306 Y119.333 E4.99269
G1 X198.244 Y119.918 E.02129
G1 X100.084 Y21.759 E5.01922
G1 X99.504 Y21.826 E.02113
G1 X198.176 Y120.498 E5.04543
G1 X198.104 Y121.074 E.02099
G1 X98.926 Y21.895 E5.07131
G1 X98.355 Y21.971 E.02084
G1 X198.033 Y121.65 E5.09689
G1 X197.949 Y122.212 E.02058
G1 X97.783 Y22.047 E5.12178
G2 X97.217 Y22.128 I2.182 J17.228 E.02068
G1 X197.864 Y122.775 E5.1464
G1 X197.779 Y123.338 E.02057
G1 X96.654 Y22.213 E5.17086
G1 X96.091 Y22.297 E.02059
G1 X197.695 Y123.9 E5.19533
G1 X197.61 Y124.463 E.02057
G1 X95.536 Y22.389 E5.21938
G1 X94.982 Y22.482 E.02032
G1 X197.519 Y125.019 E5.24305
G1 X197.421 Y125.569 E.02019
G1 X94.429 Y22.577 E5.26634
G1 X93.884 Y22.679 E.02006
G1 X197.323 Y126.119 E5.28923
G3 X197.22 Y126.662 I-16.376 J-2.83 E.02002
G1 X93.338 Y22.781 E5.31183
G2 X92.795 Y22.885 I3.221 J18.253 E.02
G1 X197.115 Y127.204 E5.3342
G1 X197.009 Y127.746 E.01996
G1 X92.257 Y22.994 E5.35633
G1 X91.719 Y23.103 E.01986
G1 X196.895 Y128.28 E5.37805
G1 X196.781 Y128.813 E.01971
G1 X91.185 Y23.217 E5.39949
G1 X90.656 Y23.335 E.01959
G1 X196.666 Y129.345 E5.42065
G1 X196.544 Y129.87 E.01949
G1 X90.128 Y23.454 E5.44144
G2 X89.603 Y23.577 I3.66 J16.812 E.01948
G1 X196.422 Y130.395 E5.46201
G3 X196.299 Y130.919 I-15.585 J-3.392 E.01946
G1 X89.081 Y23.702 E5.48237
G1 X88.56 Y23.828 E.0194
G1 X196.169 Y131.437 E5.50242
G1 X196.039 Y131.955 E.01929
G1 X88.044 Y23.959 E5.52217
G1 X87.53 Y24.093 E.01918
G1 X195.907 Y132.47 E5.54169
G1 X195.77 Y132.981 E.0191
G1 X87.017 Y24.227 E5.56093
G2 X86.509 Y24.366 I4.034 J15.724 E.01905
G1 X195.633 Y133.491 E5.57991
G3 X195.494 Y133.999 I-13.468 J-3.418 E.01905
G1 X86.002 Y24.507 E5.59869
G1 X85.496 Y24.648 E.01901
G1 X195.349 Y134.501 E5.61716
G1 X195.204 Y135.003 E.0189
G1 X84.996 Y24.795 E5.63531
G1 X84.498 Y24.944 E.01881
G1 X195.057 Y135.504 E5.65327
G1 X194.905 Y135.999 E.01873
G1 X83.999 Y25.093 E5.67097
G2 X83.506 Y25.248 I4.334 J14.684 E.01867
G1 X194.752 Y136.494 E5.68839
G3 X194.598 Y136.987 I-14.408 J-4.234 E.01868
G1 X83.015 Y25.404 E5.70563
G1 X82.524 Y25.56 E.01864
G1 X194.439 Y137.475 E5.72261
G1 X194.28 Y137.963 E.01856
G1 X82.038 Y25.721 E5.73932
G1 X81.553 Y25.884 E.01848
G1 X194.118 Y138.449 E5.7558
G1 X193.948 Y138.926 E.01832
G1 X81.069 Y26.047 E5.77187
G2 X80.59 Y26.215 I4.739 J14.312 E.01837
G1 X193.778 Y139.403 E5.7877
G1 X193.608 Y139.88 E.01832
G1 X80.112 Y26.384 E5.80343
G1 X79.634 Y26.554 E.01833
G1 X193.438 Y140.358 E5.81916
G1 X193.268 Y140.835 E.01832
G1 X79.162 Y26.729 E5.83464
G1 X78.691 Y26.906 E.01816
G1 X193.097 Y141.311 E5.84993
G1 X192.916 Y141.778 E.0181
G1 X78.221 Y27.083 E5.86474
G2 X77.755 Y27.264 I5.115 J13.893 E.01809
G1 X192.736 Y142.245 E5.87936
G1 X192.555 Y142.712 E.0181
G1 X77.291 Y27.448 E5.89383
G1 X76.828 Y27.632 E.01803
G1 X192.368 Y143.172 E5.90795
G1 X192.18 Y143.632 E.01796
G1 X76.367 Y27.818 E5.92193
G1 X75.91 Y28.008 E.0179
G1 X191.993 Y144.091 E5.93571
G3 X191.8 Y144.546 I-14.315 J-5.795 E.01786
G1 X75.453 Y28.199 E5.94924
G2 X74.998 Y28.391 I5.121 J12.77 E.01787
G1 X191.607 Y145 E5.96262
G1 X191.413 Y145.454 E.01784
G1 X74.547 Y28.588 E5.97574
G1 X74.097 Y28.785 E.01777
G1 X191.215 Y145.903 E5.98864
G1 X191.015 Y146.35 E.01772
G1 X73.648 Y28.983 E6.00141
G1 X73.204 Y29.186 E.01766
G1 X190.815 Y146.798 E6.01388
G3 X190.612 Y147.241 I-11.924 J-5.201 E.01765
G1 X72.76 Y29.389 E6.02617
G1 X72.316 Y29.593 E.01766
G1 X190.405 Y147.682 E6.03828
G1 X190.198 Y148.122 E.01759
G1 X71.878 Y29.802 E6.0501
G1 X71.44 Y30.012 E.01754
G1 X189.989 Y148.56 E6.06179
G1 X189.775 Y148.994 E.01748
G1 X71.003 Y30.222 E6.07324
G2 X70.57 Y30.436 I5.705 J12.066 E.01747
G1 X189.562 Y149.428 E6.08446
G3 X189.348 Y149.861 I-13.783 J-6.537 E.01747
G1 X70.139 Y30.653 E6.09555
G1 X69.708 Y30.869 E.01744
G1 X189.129 Y150.289 E6.10637
G1 X188.909 Y150.718 E.01739
G1 X69.28 Y31.088 E6.11706
G1 X68.855 Y31.31 E.01734
G1 X188.69 Y151.146 E6.12759
G3 X188.466 Y151.568 I-11.792 J-5.995 E.01731
G1 X68.43 Y31.533 E6.13784
G2 X68.007 Y31.757 I3.789 J7.65 E.01731
G1 X188.24 Y151.99 E6.14792
G1 X188.014 Y152.412 E.01729
G1 X67.592 Y31.989 E6.15761
G1 X67.176 Y32.221 E.0172
G1 X187.785 Y152.83 E6.16713
G1 X187.554 Y153.246 E.01721
G1 X66.761 Y32.453 E6.17653
G1 X66.346 Y32.686 E.0172
G1 X187.322 Y153.662 E6.18592
G3 X187.089 Y154.075 I-10.251 J-5.515 E.01718
G1 X65.931 Y32.918 E6.19521
G1 X65.516 Y33.15 E.0172
G1 X186.85 Y154.484 E6.20424
G1 X186.612 Y154.893 E.01711
G1 X65.106 Y33.387 E6.21299
G1 X64.699 Y33.628 E.01709
G1 X186.373 Y155.302 E6.22159
G1 X186.129 Y155.705 E.01705
G1 X64.292 Y33.868 E6.22992
G2 X63.888 Y34.111 I6.082 J10.585 E.01706
G1 X185.885 Y156.109 E6.23813
G1 X185.641 Y156.512 E.01705
G1 X63.488 Y34.358 E6.24613
G1 X63.088 Y34.606 E.01701
G1 X185.393 Y156.911 E6.2539
G1 X185.143 Y157.309 E.01697
G1 X62.688 Y34.853 E6.26157
G1 X62.294 Y35.106 E.01694
G1 X184.894 Y157.706 E6.26894
G3 X184.641 Y158.101 I-11.817 J-7.261 E.01695
G1 X61.9 Y35.36 E6.27619
G1 X61.506 Y35.613 E.01694
G1 X184.386 Y158.493 E6.28327
G1 X184.13 Y158.885 E.01691
G1 X61.116 Y35.87 E6.29014
G1 X60.727 Y36.129 E.01688
G1 X183.874 Y159.276 E6.29692
G1 X183.612 Y159.661 E.01684
G1 X60.339 Y36.388 E6.30338
G2 X59.952 Y36.649 I7.09 J10.911 E.01686
G1 X183.349 Y160.046 E6.30972
G1 X183.087 Y160.431 E.01684
G1 X59.57 Y36.913 E6.31587
G1 X59.187 Y37.178 E.01682
G1 X182.821 Y160.812 E6.32184
G1 X182.554 Y161.193 E.0168
G1 X58.805 Y37.443 E6.32774
G1 X58.428 Y37.713 E.01677
G1 X182.287 Y161.573 E6.33335
G3 X182.017 Y161.951 I-9.572 J-6.544 E.01678
G1 X58.051 Y37.984 E6.33884
G1 X57.674 Y38.254 E.01677
G1 X181.744 Y162.324 E6.3441
G1 X181.47 Y162.698 E.01674
G1 X57.301 Y38.529 E6.34915
G1 X56.931 Y38.806 E.01672
G1 X181.196 Y163.071 E6.35409
G1 X180.917 Y163.439 E.01671
G1 X56.56 Y39.083 E6.35876
G2 X56.192 Y39.361 I8.404 J11.514 E.01671
G1 X180.638 Y163.807 E6.36335
G1 X180.359 Y164.175 E.01671
G1 X55.826 Y39.643 E6.36774
G1 X55.461 Y39.926 E.01669
G1 X180.076 Y164.54 E6.37195
G1 X179.79 Y164.902 E.01667
G1 X55.096 Y40.208 E6.37604
G2 X54.736 Y40.495 I8.185 J10.619 E.01665
G1 X179.505 Y165.264 E6.37986
G3 X179.219 Y165.625 I-9.738 J-7.445 E.01666
G1 X54.377 Y40.783 E6.38359
G1 X54.017 Y41.071 E.01665
G1 X178.927 Y165.981 E6.38707
G1 X178.636 Y166.337 E.01663
G1 X53.661 Y41.362 E6.3904
G1 X53.307 Y41.655 E.01662
G1 X178.345 Y166.693 E6.39358
G3 X178.049 Y167.044 I-10.983 J-8.943 E.01661
G1 X52.954 Y41.949 E6.39654
G2 X52.601 Y42.244 I7.946 J9.873 E.01662
G1 X177.752 Y167.395 E6.39941
G1 X177.456 Y167.746 E.01661
G1 X52.253 Y42.543 E6.40203
G1 X51.905 Y42.843 E.0166
G1 X177.156 Y168.094 E6.4045
G1 X176.854 Y168.439 E.01659
G1 X51.558 Y43.142 E6.40682
G2 X51.214 Y43.446 I8.382 J9.816 E.01658
G1 X176.551 Y168.783 E6.40891
G3 X176.249 Y169.128 I-10.856 J-9.235 E.01658
G1 X50.872 Y43.752 E6.41092
G1 X50.53 Y44.057 E.01658
G1 X175.941 Y169.468 E6.41267
G1 X175.633 Y169.807 E.01657
G1 X50.191 Y44.365 E6.41427
G1 X49.858 Y44.679 E.01656
G1 X175.326 Y170.147 E6.41559
G3 X175.014 Y170.483 I-9.501 J-8.502 E.01656
G1 X49.524 Y44.993 E6.41673
G1 X49.19 Y45.306 E.01656
G1 X174.701 Y170.817 E6.41776
G1 X174.387 Y171.15 E.01656
G1 X48.857 Y45.62 E6.41879
G1 X48.523 Y45.934 E.01656
G1 X174.071 Y171.482 E6.4197
G1 X173.749 Y171.807 E.01655
G1 X48.189 Y46.247 E6.4203
G2 X47.861 Y46.566 I5.666 J6.176 E.01655
G1 X173.427 Y172.132 E6.42064
G1 X173.105 Y172.458 E.01655
G1 X47.536 Y46.888 E6.42078
G1 X47.211 Y47.211 E.01655
G1 X172.783 Y172.783 E6.42092
G1 X172.461 Y173.108 E.01655
G1 X46.887 Y47.534 E6.42102
